X:1
T:Title
%%score ( 1 2 ) { ( 3 5 ) | 4 }
L:1/8
Q:1/4=113
M:4/4
K:Bb
V:1 treble nm="Grand Piano, Unnamed-000"
V:2 treble 
V:3 bass nm="Choir Pad, Herzliebster Jesu"
V:5 bass 
V:4 bass 
V:1
 [DG]4 [EG]2 [EG]2 | [CF]4 D4 | [DG]2 [DA]2 [GB]2 [FB]2 | [Ec]4 [DA]4 | [DA]4 [DB]2 [Fc]2 | %5
w: By~Johann~Crüger,~1640 * *|||||
 [Fd]4 [GB]4 | [Ge]2 [Ge]2 [Fd]2 [Fd]2 | [Fc]4 [DB]4 | [GB]4 [FA]2 [EG]2 | [DF]4 [B,D]4 | %10
w: |||||
 [DF]2 [CF]2 [DG]2 [DF]2 | [CE]4 [B,D]4 | [Dd]4 [Ec]2 [DB]2 | A4 z4 | z8 |] %15
w: |||||
V:2
 x8 | x8 | x8 | x8 | x8 | x8 | x8 | x8 | x8 | x8 | x8 | x8 | x8 | D3 C [B,G]4- | [B,G]4 z4 |] %15
V:3
 B,4 B,2 C2 | A,4 F,4 | B,2 A,2 G,2 B,2 | G,4 ^F,4 | ^F,4 G,2 A,2 | B,4 G,4 | z4 z2 B,2 | %7
 B,2 A,2 B,4 | D4 D2 B,2 | B,4 F,4 | F,2 A,2 B,2 B,2 | G,4 G,4 | F,2 B,2 G,2 G,2 | G,2 ^F,2 G,4- | %14
 G,4 z4 |] %15
V:4
 G,4 E,2 C,2 | F,4 B,,4 | G,2 F,2 E,2 D,2 | C,4 D,4 | D,4 z2 F,2 | B,,4 E,4 | C,2 C,2 .D,4 | %7
 F,4 B,,4 | G,,4 D,2 E,2 | B,,4 B,,4 | B,,2 A,,2 G,,2 B,,2 | C,4 G,,4 | B,,4 C,2 G,,2 | D,4 G,,4- | %14
 G,,4 z4 |] %15
V:5
 x8 | x8 | x8 | x8 | x8 | x8 | C2 G,A, B,2 z E, | x8 | x8 | x8 | x8 | x8 | x8 | x8 | x8 |] %15

